X: 266
T: The Old Blind Bard
B: O'Neill's 266
N: "Brilliant"
N: "Collected by J.O'Neill"
Z: 1997 by John Chambers <jc@trillian.mit.edu>
N: Typo: The note values are obviously wrong in bar 6; (b2a2) should be (ba).
M: 2/4
L: 1/16
K:Em
(BA) \
|GABc .d2cd|edcd .B2ba|ag2fe B2d2|e6 BA|
|GABc .d2cd|edcd .B2b2a2|gfed B2d2|e6||
||b2 \
|b3a .g2fg|agfe .d2ef|.g2fg efga|b2B2 .B2BA|
|GABc .d2cd|edcd .B2ba|gfed B2d2|e6||
